!!!COM: Fanny Hensel-Mendelssohn
!!!OTL: Schweigend sinkt die Nacht
**kern	**text	**dynam	**kern	**text	**dynam	**kern	**text	**dynam	**kern	**text	**dynam	**kern	**text	**kern	**text	**kern	**text	**kern	**text
*part8	*part8	*part8	*part7	*part7	*part7	*part6	*part6	*part6	*part5	*part5	*part5	*part4	*part4	*part3	*part3	*part2	*part2	*part1	*part1
*staff8	*staff8	*	*staff7	*staff7	*	*staff6	*staff6	*	*staff5	*staff5	*	*staff4	*staff4	*staff3	*staff3	*staff2	*staff2	*staff1	*staff1
*I"Baß	*	*	*I"Tenor	*	*	*I"Alt	*	*	*I"Sopran	*	*	*I"Baß	*	*I"Tenor	*	*I"Alt	*	*I"Sopran	*
*clefF4	*	*	*clefGv2	*	*	*clefG2	*	*	*clefG2	*	*	*clefF4	*	*clefGv2	*	*clefG2	*	*clefG2	*
*k[b-e-]	*	*	*k[b-e-]	*	*	*k[b-e-]	*	*	*k[b-e-]	*	*	*k[b-e-]	*	*k[b-e-]	*	*k[b-e-]	*	*k[b-e-]	*
*B-:	*	*	*B-:	*	*	*B-:	*	*	*B-:	*	*	*B-:	*	*B-:	*	*B-:	*	*B-:	*
*M4/4	*	*	*M4/4	*	*	*M4/4	*	*	*M4/4	*	*	*M4/4	*	*M4/4	*	*M4/4	*	*M4/4	*
*met(c)	*	*	*met(c)	*	*	*met(c)	*	*	*met(c)	*	*	*met(c)	*	*met(c)	*	*met(c)	*	*met(c)	*
=	=	=	=	=	=	=	=	=	=	=	=	=	=	=	=	=	=	=	=
!	!	!	!	!	!	!	!	!	!	!	!	!	!	!	!	!	!	!LO:TX:a:B:t=Andante	!
2r	.	.	2r	.	.	2r	.	.	2r	.	.	4.B-	Schwei-	4.d	Schwei-	4.f	Schwei-	4.b-	Schwei-
.	.	.	.	.	.	.	.	.	.	.	.	8B-	-gend	8d	-gend	8f	-gend	8a	-gend
=1	=1	=1	=1	=1	=1	=1	=1	=1	=1	=1	=1	=1	=1	=1	=1	=1	=1	=1	=1
1r	.	.	1r	.	.	1r	.	.	1r	.	.	4B-	sinkt	4e-	sinkt	4e-	sinkt	4g	sinkt
.	.	.	.	.	.	.	.	.	.	.	.	4B-	die	4d	die	4d	die	4f	die
.	.	.	.	.	.	.	.	.	.	.	.	4.BB-	Nacht	4.G	Nacht	4.d-X	Nacht	4.en	Nacht
.	.	.	.	.	.	.	.	.	.	.	.	8BB-	her-	8G	her-	8d-	her-	8e	her-
=2	=2	=2	=2	=2	=2	=2	=2	=2	=2	=2	=2	=2	=2	=2	=2	=2	=2	=2	=2
1r	.	.	1r	.	.	1r	.	.	1r	.	.	4BB-	-nie-	4G	-nie-	4d-X	-nie-	4en	-nie-
.	.	.	.	.	.	.	.	.	.	.	.	4AA	-der,	4F	-der,	4c	-der,	4f	-der,
.	.	.	.	.	.	.	.	.	.	.	.	4.G	still	4.B-	still	4.e-X	still	4.ee-X	still
.	.	.	.	.	.	.	.	.	.	.	.	8F	ver-	8B-	ver-	8f	ver-	8dd	ver-
=3	=3	=3	=3	=3	=3	=3	=3	=3	=3	=3	=3	=3	=3	=3	=3	=3	=3	=3	=3
1r	.	.	1r	.	.	1r	.	.	1r	.	.	4E-	-glimmt	4c	-glimmt	4g	-glimmt	4cc	-glimmt
.	.	.	.	.	.	.	.	.	.	.	.	4E-	des	4c#X	des	4g	des	4b-	des
.	.	.	.	.	.	.	.	.	.	.	.	4D	A-	4d	A-	4b-	A-	4dd	A-
.	.	.	.	.	.	.	.	.	.	.	.	4G	-bends	4c#	-bends	8aL	-bends	8ccL	-bends
.	.	.	.	.	.	.	.	.	.	.	.	.	.	.	.	8gJ	.	8b-J	.
!!pagebreak:original
=4	=4	=4	=4	=4	=4	=4	=4	=4	=4	=4	=4	=4	=4	=4	=4	=4	=4	=4	=4
1r	.	.	1r	.	.	1r	.	.	1r	.	.	4D	Pracht,	4d	Pracht,	4f#X	Pracht,	4a	Pracht,
.	.	.	.	.	.	.	.	.	.	.	.	4r	.	4r	.	4r	.	4r	.
.	.	.	.	.	.	.	.	.	.	.	.	4.G	leis	4.d	leis	4.fn	leis	4.bn	leis
.	.	.	.	.	.	.	.	.	.	.	.	8G	ver-	8d	ver-	8f	ver-	8b	ver-
=5	=5	=5	=5	=5	=5	=5	=5	=5	=5	=5	=5	=5	=5	=5	=5	=5	=5	=5	=5
1r	.	.	1r	.	.	1r	.	.	1r	.	.	4G	-klin-	4d	-klin-	4f	-klin-	4bn	-klin-
.	.	.	.	.	.	.	.	.	.	.	.	4G	-gen	4c	-gen	4en	-gen	4cc	-gen
.	.	.	.	.	.	.	.	.	.	.	.	4.G-X	uns-	4.c	uns-	4.e-X	uns-	4.b-X	uns-
.	.	.	.	.	.	.	.	.	.	.	.	8G-	-re	8c	-re	8e-	-re	8cc	-re
=6	=6	=6	=6	=6	=6	=6	=6	=6	=6	=6	=6	=6	=6	=6	=6	=6	=6	=6	=6
1r	.	.	1r	.	.	1r	.	.	1r	.	.	4G-X	Lie-	4c	Lie-	4e-	Lie-	4b-	Lie-
.	.	.	.	.	.	.	.	.	.	.	.	4F	-der,	4c	-der,	4e-	-der,	4a	-der,
.	.	.	.	.	.	.	.	.	.	.	.	4F	lei-	4c-X	lei-	4e-	lei-	4a-X	lei-
.	.	.	.	.	.	.	.	.	.	.	.	4F	-ser	4c-	-ser	4e-	-ser	4a-	-ser
=7	=7	=7	=7	=7	=7	=7	=7	=7	=7	=7	=7	=7	=7	=7	=7	=7	=7	=7	=7
1r	.	.	1r	.	.	1r	.	.	1r	.	.	4BB-	klingt	4B-	klingt	4d	klingt	4ff	klingt
.	.	.	.	.	.	.	.	.	.	.	.	4F	die	4d	die	4B-	die	8ddL	die
.	.	.	.	.	.	.	.	.	.	.	.	.	.	.	.	.	.	8ccJ	.
.	.	.	.	.	.	.	.	.	.	.	.	4D	Wel-	4.f	Wel-	4B-	Wel-	4.b-	Wel-
.	.	.	.	.	.	.	.	.	.	.	.	4BB-	-le	.	.	4B-	-le	.	.
.	.	.	.	.	.	.	.	.	.	.	.	.	.	8d	-le	.	.	8a-X	-le
!!linebreak:original
=8	=8	=8	=8	=8	=8	=8	=8	=8	=8	=8	=8	=8	=8	=8	=8	=8	=8	=8	=8
1r	.	.	1r	.	.	1r	.	.	1r	.	.	4E-	wie-	4d	wie-	4B-	wie-	4f#X	wie-
.	.	.	.	.	.	.	.	.	.	.	.	4E-	-der,	4e-	-der,	4B-	-der,	4g	-der,
.	.	.	.	.	.	.	.	.	.	.	.	2r	.	4B-	uns-	2r	.	2r	.
.	.	.	.	.	.	.	.	.	.	.	.	.	.	4B-	-re	.	.	.	.
=9	=9	=9	=9	=9	=9	=9	=9	=9	=9	=9	=9	=9	=9	=9	=9	=9	=9	=9	=9
1r	.	.	1r	.	.	1r	.	.	1r	.	.	1r	.	4.g	Fahrt,	1r	.	1r	.
.	.	.	.	.	.	.	.	.	.	.	.	.	.	8e-	sie	.	.	.	.
.	.	.	.	.	.	.	.	.	.	.	.	.	.	4c	ist	.	.	.	.
.	.	.	.	.	.	.	.	.	.	.	.	.	.	4B-	voll-	.	.	.	.
=10	=10	=10	=10	=10	=10	=10	=10	=10	=10	=10	=10	=10	=10	=10	=10	=10	=10	=10	=10
1r	.	.	1r	.	.	1r	.	.	1r	.	.	2r	.	[1A	-bracht,	2r	.	2r	.
.	.	.	.	.	.	.	.	.	.	.	.	4.c	uns-	.	.	4.e-	uns-	4.f	uns-
.	.	.	.	.	.	.	.	.	.	.	.	8c	-re	.	.	8e-	-re	8f	-re
=11	=11	=11	=11	=11	=11	=11	=11	=11	=11	=11	=11	=11	=11	=11	=11	=11	=11	=11	=11
1r	.	.	1r	.	.	1r	.	.	1r	.	.	[1c	Fahrt,	4A]	.	[1e-	Fahrt,	[1f	Fahrt,
.	.	.	.	.	.	.	.	.	.	.	.	.	.	4A	sie	.	.	.	.
.	.	.	.	.	.	.	.	.	.	.	.	.	.	4c	ist	.	.	.	.
.	.	.	.	.	.	.	.	.	.	.	.	.	.	4B-	voll-	.	.	.	.
!!linebreak:original
=12	=12	=12	=12	=12	=12	=12	=12	=12	=12	=12	=12	=12	=12	=12	=12	=12	=12	=12	=12
1r	.	.	1r	.	.	1r	.	.	1r	.	.	4c]	.	(2.A	-bracht,	4e-]	.	4f]	.
.	.	.	.	.	.	.	.	.	.	.	.	4c	sie	.	.	4e-	sie	4f	sie
.	.	.	.	.	.	.	.	.	.	.	.	4F	ist	.	.	4e-	ist	4cc	ist
.	.	.	.	.	.	.	.	.	.	.	.	4F	voll-	4B-	.	4e-	voll-	8b-L	voll-
.	.	.	.	.	.	.	.	.	.	.	.	.	.	.	.	.	.	8aJ	.
=13	=13	=13	=13	=13	=13	=13	=13	=13	=13	=13	=13	=13	=13	=13	=13	=13	=13	=13	=13
1r	.	.	1r	.	.	1r	.	.	1r	.	.	4F	-bracht,	4c)	.	4e-	-bracht,	4a	-bracht,
.	.	.	.	.	.	.	.	.	.	.	.	4r	.	4r	.	4r	.	4r	.
.	.	.	.	.	.	.	.	.	.	.	.	4.F	uns-	4.Bn	uns-	4.d	uns-	4.a-X	uns-
.	.	.	.	.	.	.	.	.	.	.	.	8F	-re	8B	-re	8d	-re	8a-	-re
=14	=14	=14	=14	=14	=14	=14	=14	=14	=14	=14	=14	=14	=14	=14	=14	=14	=14	=14	=14
1r	.	.	1r	.	.	1r	.	.	1r	.	.	1E-	Fahrt,	(2Bn	Fahrt,	(2d	Fahrt,	(4g	Fahrt,
.	.	.	.	.	.	.	.	.	.	.	.	.	.	.	.	.	.	4gg	.
.	.	.	.	.	.	.	.	.	.	.	.	.	.	2c)	.	2e-)	.	4ee-)	.
.	.	.	.	.	.	.	.	.	.	.	.	.	.	.	.	.	.	4cc	sie
=15	=15	=15	=15	=15	=15	=15	=15	=15	=15	=15	=15	=15	=15	=15	=15	=15	=15	=15	=15
1r	.	.	1r	.	.	1r	.	.	1r	.	.	4r	.	4r	.	4r	.	2.b-	ist
.	.	.	.	.	.	.	.	.	.	.	.	4G	sie	4c#X	sie	4en	sie	.	.
.	.	.	.	.	.	.	.	.	.	.	.	4F	ist	4d	ist	4f	ist	.	.
.	.	.	.	.	.	.	.	.	.	.	.	4F	voll-	4A	voll-	4e-X	voll-	8ddL	voll-
.	.	.	.	.	.	.	.	.	.	.	.	.	.	.	.	.	.	8ccJ	.
!!pagebreak:original
=16	=16	=16	=16	=16	=16	=16	=16	=16	=16	=16	=16	=16	=16	=16	=16	=16	=16	=16	=16
4r	.	.	4r	.	.	4r	.	.	4r	.	.	4B-	-bracht,	4B-	-bracht,	4d	-bracht,	4b-	-bracht,
!	!	!LO:DY:a	!	!	!LO:DY:a	!	!	!LO:DY:a	!	!	!LO:DY:a	!	!	!	!	!	!	!	!
8.BB-	lei-	pp	8.F	lei-	pp	8.B-	lei-	pp	8.d	lei-	pp	4r	.	4r	.	4r	.	4r	.
16BB-	-se,	.	16F	-se,	.	16B-	-se,	.	16d	-se,	.	.	.	.	.	.	.	.	.
4BB-	lei-	.	4F	lei-	.	4B-	lei-	.	4d	lei-	.	4r	.	4r	.	4r	.	4r	.
4BB-	-se	.	4F	-se	.	4B-	-se	.	4d	-se	.	8.B-	lei-	8.d	lei-	8.f	lei-	8.ff	lei-
.	.	.	.	.	.	.	.	.	.	.	.	16B-	-se,	16d	-se,	16f	-se,	16ff	-se,
=17	=17	=17	=17	=17	=17	=17	=17	=17	=17	=17	=17	=17	=17	=17	=17	=17	=17	=17	=17
4r	.	.	4r	.	.	4r	.	.	4r	.	.	4B-	lei-	4d	lei-	4f	lei-	4ff	lei-
8.B-	gu-	.	8.B-	gu-	.	8.d	gu-	.	8.f	gu-	.	4B-	-se	4d	-se	4f	-se	4b-	-se
16B-	-te	.	16B-	-te	.	16d	-te	.	16f	-te	.	.	.	.	.	.	.	.	.
4B-	Nacht,	.	4B-	Nacht,	.	4d	Nacht,	.	4f	Nacht,	.	4r	.	4r	.	4r	.	4r	.
4r	.	.	4r	.	.	4r	.	.	4r	.	.	8.B-	gu-	8.d	gu-	8.f	gu-	8.b-	gu-
.	.	.	.	.	.	.	.	.	.	.	.	16B-	-te	16d	-te	16f	-te	16b-	-te
=18	=18	=18	=18	=18	=18	=18	=18	=18	=18	=18	=18	=18	=18	=18	=18	=18	=18	=18	=18
4r	.	.	4r	.	.	4r	.	.	4r	.	.	[1B-	Nacht,	[1f	Nacht,	(1dd	Nacht,	([1aa-X	Nacht,
8.BB-	gu-	.	8.F	gu-	.	8.B-	gu-	.	8.d	gu-	.	.	.	.	.	.	.	.	.
16BB-	-te	.	16F	-te	.	16B-	-te	.	16d	-te	.	.	.	.	.	.	.	.	.
4BB-	Nacht,	.	4F	Nacht,	.	4B-	Nacht,	.	4d	Nacht,	.	.	.	.	.	.	.	.	.
8.BB-	gu-	.	8.F	gu-	.	8.B-	gu-	.	8.d	gu-	.	.	.	.	.	.	.	.	.
16BB-	-te	.	16F	-te	.	16B-	-te	.	16d	-te	.	.	.	.	.	.	.	.	.
=19	=19	=19	=19	=19	=19	=19	=19	=19	=19	=19	=19	=19	=19	=19	=19	=19	=19	=19	=19
2BB-	Nacht,	.	2G	Nacht,	.	2B-	Nacht,	.	2e-	Nacht,	.	2B-]	.	2f]	.	2b-)	.	4aa-]	.
.	.	.	.	.	.	.	.	.	.	.	.	.	.	.	.	.	.	4gg)	.
2r	.	.	2r	.	.	2r	.	.	2r	.	.	4BB-	.	4g	gu-	4b-	gu-	4ee-	gu-
.	.	.	.	.	.	.	.	.	.	.	.	4r	.	4e-	-te	4a	-te	4cc	-te
!!pagebreak:original
=20	=20	=20	=20	=20	=20	=20	=20	=20	=20	=20	=20	=20	=20	=20	=20	=20	=20	=20	=20
4r	.	.	4r	.	.	4r	.	.	4r	.	.	2r	.	2.c	Nacht,	2.e-	Nacht,	2.ani	Nacht,
8.BB-	gu-	.	8.F	gu-	.	8.A	gu-	.	8.e-	gu-	.	.	.	.	.	.	.	.	.
16BB-	-te	.	16F	-te	.	16A	-te	.	16e-	-te	.	.	.	.	.	.	.	.	.
4BB-	Nach,	.	4F	Nach,	.	4A	Nach,	.	4e-	Nach,	.	4r	.	.	.	.	.	.	.
4r	.	.	4r	.	.	4r	.	.	4r	.	.	8.A	lei-	8.e-	lei-	8.c	lei-	8.f	lei-
.	.	.	.	.	.	.	.	.	.	.	.	16A	-se,	16e-	-se,	16c	-se,	16f	-se,
=21	=21	=21	=21	=21	=21	=21	=21	=21	=21	=21	=21	=21	=21	=21	=21	=21	=21	=21	=21
4r	.	.	4r	.	.	4r	.	.	4r	.	.	2.B-	lei-	2.d	lei-	2.f	lei-	2.ff	lei-
8.BB-	gu-	.	8.B-	gu-	.	8.b-	gu-	.	8.b-	gu-	.	.	.	.	.	.	.	.	.
16BB-	-te	.	16B-	-te	.	16b-	-te	.	16b-	-te	.	.	.	.	.	.	.	.	.
4BB-	Nacht	.	4B-	Nacht	.	4b-	Nacht	.	4b-	Nacht	.	.	.	.	.	.	.	.	.
4r	.	.	4r	.	.	4r	.	.	4r	.	.	4B-	-se	4f	-se	4b-	-se	4ee-	-se
=22	=22	=22	=22	=22	=22	=22	=22	=22	=22	=22	=22	=22	=22	=22	=22	=22	=22	=22	=22
4r	.	.	4r	.	.	4r	.	.	4r	.	.	2.B-	gu-	2.d	gu-	2.f	gu-	2.b-	gu-
8.BB-	gu-	.	8.B-	gu-	.	8.b-	gu-	.	8.b-	gu-	.	.	.	.	.	.	.	.	.
16BB-	-te	.	16B-	-te	.	16b-	-te	.	16b-	-te	.	.	.	.	.	.	.	.	.
[2BB-	Nacht,	.	[2B-	Nacht,	.	(2b-	Nacht,	.	(2b-	Nacht,	.	.	.	.	.	.	.	.	.
.	.	.	.	.	.	.	.	.	.	.	.	4B-	-te	4B-	-te	4d	-te	4f	-te
=23	=23	=23	=23	=23	=23	=23	=23	=23	=23	=23	=23	=23	=23	=23	=23	=23	=23	=23	=23
4BB-]	.	.	4B-]	.	.	4d)	.	.	4f)	.	.	4BB-	Nacht,	4B-	Nacht,	2d	Nacht,	2b-	Nacht,
4r	.	.	4r	.	.	4r	.	.	4r	.	.	4r	.	2d	uns-	.	.	.	.
2r	.	.	2r	.	.	2r	.	.	2r	.	.	2r	.	.	.	2r	.	2r	.
.	.	.	.	.	.	.	.	.	.	.	.	.	.	4c	-re	.	.	.	.
!!pagebreak:original
=24	=24	=24	=24	=24	=24	=24	=24	=24	=24	=24	=24	=24	=24	=24	=24	=24	=24	=24	=24
1r	.	.	1r	.	.	1r	.	.	1r	.	.	1r	.	4B-	Fahrt,	1r	.	1r	.
.	.	.	.	.	.	.	.	.	.	.	.	.	.	4A	sie	.	.	.	.
.	.	.	.	.	.	.	.	.	.	.	.	.	.	4G	ist	.	.	.	.
.	.	.	.	.	.	.	.	.	.	.	.	.	.	4F	voll-	.	.	.	.
=25	=25	=25	=25	=25	=25	=25	=25	=25	=25	=25	=25	=25	=25	=25	=25	=25	=25	=25	=25
2r	.	.	2r	.	.	2r	.	.	2r	.	.	1r	.	(1En	-bracht,	1r	.	1r	.
4.GG	uns-	.	4.B-	uns-	.	4.B-	uns-	.	4.c#X	uns-	.	.	.	.	.	.	.	.	.
8GG	-re	.	8B-	-re	.	8B-	-re	.	8c#	-re	.	.	.	.	.	.	.	.	.
=26	=26	=26	=26	=26	=26	=26	=26	=26	=26	=26	=26	=26	=26	=26	=26	=26	=26	=26	=26
4FF	Fahrt,	.	4B-	Fahrt,	.	4B-	Fahrt,	.	4d	Fahrt,	.	1r	.	4F)	.	4r	.	1r	.
4F	sie	.	4B-	sie	.	4d	sie	.	4f	sie	.	.	.	8B-L	sie	2dd	uns-	.	.
.	.	.	.	.	.	.	.	.	.	.	.	.	.	8dJ	.	.	.	.	.
4F	ist	.	4c	ist	.	4e-	ist	.	4b-	ist	.	.	.	4.f	ist	.	.	.	.
4F	voll-	.	4c	voll-	.	4e-	voll-	.	4a	voll-	.	.	.	.	.	4cc	-re	.	.
.	.	.	.	.	.	.	.	.	.	.	.	.	.	8e-	voll-	.	.	.	.
=27	=27	=27	=27	=27	=27	=27	=27	=27	=27	=27	=27	=27	=27	=27	=27	=27	=27	=27	=27
4BB-	-bracht,	.	4B-	-bracht,	.	4d	-bracht,	.	4b-	-bracht,	.	1r	.	4d	-bracht,	4b-	Fahrt,	1r	.
4r	.	.	4r	.	.	4r	.	.	4r	.	.	.	.	4r	.	4a	sie	.	.
2r	.	.	2r	.	.	2r	.	.	2r	.	.	.	.	2r	.	4g	ist	.	.
.	.	.	.	.	.	.	.	.	.	.	.	.	.	.	.	4f	voll-	.	.
!!pagebreak:original
=28	=28	=28	=28	=28	=28	=28	=28	=28	=28	=28	=28	=28	=28	=28	=28	=28	=28	=28	=28
2r	.	.	2r	.	.	2r	.	.	2r	.	.	2r	.	1r	.	[1en	-bracht,	1r	.
4.G	uns-	.	4.G	uns-	.	4.B-	uns-	.	4.c#X	uns-	.	4.G	uns-	.	.	.	.	.	.
8G	-re	.	8G	-re	.	8B-	-re	.	8c#	-re	.	8G	-re	.	.	.	.	.	.
=29	=29	=29	=29	=29	=29	=29	=29	=29	=29	=29	=29	=29	=29	=29	=29	=29	=29	=29	=29
2G	Fahr	.	2B-	Fahr	.	2c#X	Fahr	.	2en	Fahr	.	2G	Fahr	2.c#X	uns-	2en]	.	2.b-	uns-
4.GG 4.G	ist	.	4.B-	ist	.	4.c#	ist	.	4.e	ist	.	4.G	ist	.	.	4.e	uns-	.	.
.	.	.	.	.	.	.	.	.	.	.	.	.	.	4c#	-re	.	.	4b-	-re
8GG 8G	voll-	.	8B-	voll-	.	8c#	voll-	.	8e	voll-	.	8G	voll-	.	.	8e	-re	.	.
=30	=30	=30	=30	=30	=30	=30	=30	=30	=30	=30	=30	=30	=30	=30	=30	=30	=30	=30	=30
[1FF [1F	-bracht,	.	[1B-	-bracht,	.	[1d	-bracht,	.	[1f	-bracht,	.	[1F	-bracht,	([1d	Fahrt,	[1f	Fahr	(4b-	Fahrt,
.	.	.	.	.	.	.	.	.	.	.	.	.	.	.	.	.	.	8ccL	.
.	.	.	.	.	.	.	.	.	.	.	.	.	.	.	.	.	.	8ddJ	.
.	.	.	.	.	.	.	.	.	.	.	.	.	.	.	.	.	.	8ee-L	.
.	.	.	.	.	.	.	.	.	.	.	.	.	.	.	.	.	.	8ff	.
.	.	.	.	.	.	.	.	.	.	.	.	.	.	.	.	.	.	8gg	.
.	.	.	.	.	.	.	.	.	.	.	.	.	.	.	.	.	.	8aaJ	.
=31	=31	=31	=31	=31	=31	=31	=31	=31	=31	=31	=31	=31	=31	=31	=31	=31	=31	=31	=31
1FF_ 1F_	.	.	1B-_	.	.	1d_	.	.	1f_	.	.	1F_	.	8dL]	.	1f_	.	2bb-	.
.	.	.	.	.	.	.	.	.	.	.	.	.	.	8B-	.	.	.	.	.
.	.	.	.	.	.	.	.	.	.	.	.	.	.	8c	.	.	.	.	.
.	.	.	.	.	.	.	.	.	.	.	.	.	.	8dJ	.	.	.	.	.
.	.	.	.	.	.	.	.	.	.	.	.	.	.	8e-L	.	.	.	[2ff)	.
.	.	.	.	.	.	.	.	.	.	.	.	.	.	8f	.	.	.	.	.
.	.	.	.	.	.	.	.	.	.	.	.	.	.	8g	.	.	.	.	.
.	.	.	.	.	.	.	.	.	.	.	.	.	.	8aJ	.	.	.	.	.
!!pagebreak:original
=32	=32	=32	=32	=32	=32	=32	=32	=32	=32	=32	=32	=32	=32	=32	=32	=32	=32	=32	=32
2FF] 2F]	.	.	2B-]	.	.	2d]	.	.	2f]	.	.	2F]	.	4b-)	.	2f]	.	4ff]	.
.	.	.	.	.	.	.	.	.	.	.	.	.	.	4f	sie	.	.	4dd	sie
4.FF 4.F	ist	.	4.A	ist	.	4.e-	ist	.	4.f	ist	.	4.F	ist	4.f	ist	4.a	ist	4.dd	ist
8FF 8F	voll-	.	8A	voll-	.	8e-	voll-	.	8f	voll-	.	8F	voll-	8e-	voll-	8a	voll-	8cc	voll-
=33	=33	=33	=33	=33	=33	=33	=33	=33	=33	=33	=33	=33	=33	=33	=33	=33	=33	=33	=33
2BB-	-bracht,	.	2B-	-bracht,	.	2d	-bracht,	.	2f	-bracht,	.	2BB-	-bracht,	2d	-bracht,	2b-	-bracht,	2b-	-bracht,
4.BB-	gu-	.	4.B-	gu-	.	4.e-	gu-	.	4.g	gu-	.	2r	.	2r	.	2r	.	2r	.
8BB-	-te	.	8B-	-te	.	8c#X	-te	.	8en	-te	.	.	.	.	.	.	.	.	.
=34	=34	=34	=34	=34	=34	=34	=34	=34	=34	=34	=34	=34	=34	=34	=34	=34	=34	=34	=34
2BB-	Nacht,	.	2B-	Nacht,	.	2d	Nacht,	.	2f	Nacht,	.	2r	.	2r	.	2r	.	2r	.
2r	.	.	2r	.	.	2r	.	.	2r	.	.	4.F	gu-	4.c	gu-	4.e-	gu-	4.ee-	gu-
.	.	.	.	.	.	.	.	.	.	.	.	8F	-te	8c	-te	8e-	-te	8a	-te
=35	=35	=35	=35	=35	=35	=35	=35	=35	=35	=35	=35	=35	=35	=35	=35	=35	=35	=35	=35
2r	.	.	2r	.	.	2r	.	.	2r	.	.	2BB-	Nacht,	2B-	Nacht,	2d	Nacht,	2b-	Nacht,
4.BB-	gu-	.	4.B-	gu-	.	4.e-	gu-	.	4.g	gu-	.	2r	.	2r	.	2r	.	2r	.
8BB-	-te	.	8B-	-te	.	8c#X	-te	.	8en	-te	.	.	.	.	.	.	.	.	.
=36	=36	=36	=36	=36	=36	=36	=36	=36	=36	=36	=36	=36	=36	=36	=36	=36	=36	=36	=36
2BB-	Nacht,	.	2B-	Nacht,	.	2d	Nacht,	.	2f	Nacht,	.	2r	.	2r	.	2r	.	2r	.
4.FF	gu-	.	4.A	gu-	.	4.c	gu-	.	4.cc	gu-	.	4.F	gu-	4.e-	gu-	4.a	gu-	4.ff	gu-
8FF	-te	.	8A	-te	.	8c	-te	.	8cc	-te	.	8F	-te	8e-	-te	8a	-te	8ff	-te
=37	=37	=37	=37	=37	=37	=37	=37	=37	=37	=37	=37	=37	=37	=37	=37	=37	=37	=37	=37
[1BB-	Nacht.	.	(1A	Nacht.	.	(1c	Nacht.	.	(1cc	Nacht.	.	[1F	Nacht.	(1e-	Nacht.	(1a	Nacht.	(1ff	Nacht.
=38	=38	=38	=38	=38	=38	=38	=38	=38	=38	=38	=38	=38	=38	=38	=38	=38	=38	=38	=38
2BB-]	.	.	2B-)	.	.	2d)	.	.	2b-)	.	.	2F]	.	2d)	.	2b-)	.	2b-)	.
==	==	==	==	==	==	==	==	==	==	==	==	==	==	==	==	==	==	==	==
*-	*-	*-	*-	*-	*-	*-	*-	*-	*-	*-	*-	*-	*-	*-	*-	*-	*-	*-	*-
!!!system-decoration: [(s1,s2,s3,s4)][(s5,s6,s7,s8)]
!!!RDF**kern: i = editorial accidental